X: 6678
T: Celtic Crane, The
R: reel
M: 4/4
K: Eminor
dc|B E3 GBAF|DEED FAAd|B E3 GBAF|DFAB FEEd|
B E3 GBAF|DEED FAAd|B2 edBA FA|
B2 AFFE E2:|f|e2 gebe ge|d2 fdfa af|
e2 gebe ge|agfa ge ef|e2 gebe ge|
[1 d2 fdfa af|efga bf f2|afdf e3 f:|
[2 dfeg f2 gf|efga bf f2|afdf e2 dc||

